www/assets/icons/file_download_off.svg

<svg width="24" height="24" viewBox="0 0 24 24" xmlns="http://www.w3.org/2000/svg" fill='currentColor'><path d="M9.70998 5.4601V2.2901H15.71V8.2901H19.71L16.12 11.8801L9.70998 5.4601ZM21.9 20.4801L3.51998 2.1001L2.09998 3.5101L6.87998 8.2901H5.70998L12.71 15.2901L13.3 14.7001L15.88 17.2901H5.70998V19.2901H17.88L20.49 21.9001L21.9 20.4801Z"/></svg>

<svg xmlns="http://www.w3.org/2000/svg" width="24" height="24" viewBox="0 0 24 24" fill='currentColor'><path d="M9.71 5.46V2.29h6v6h4l-3.59 3.59zM21.9 20.48 3.52 2.1 2.1 3.51l4.78 4.78H5.71l7 7 .59-.59 2.58 2.59H5.71v2h12.17l2.61 2.61z"/></svg>
